src/pos-icons/numeric-9-circle.svg

<svg height="24" viewBox="0 0 24 24" width="24" xmlns="http://www.w3.org/2000/svg"><path d="m12 2a10 10 0 0 1 10 10 10 10 0 0 1 -10 10 10 10 0 0 1 -10-10 10 10 0 0 1 10-10m1 15a2 2 0 0 0 2-2v-6a2 2 0 0 0 -2-2h-2a2 2 0 0 0 -2 2v2a2 2 0 0 0 2 2h2v2h-4v2zm0-6h-2v-2h2z"/></svg>

<?xml version="1.0" encoding="UTF-8"?><!DOCTYPE svg PUBLIC "-//W3C//DTD SVG 1.1//EN" "http://www.w3.org/Graphics/SVG/1.1/DTD/svg11.dtd"><svg xmlns="http://www.w3.org/2000/svg" xmlns:xlink="http://www.w3.org/1999/xlink" version="1.1" id="mdi-numeric-9-circle" width="24" height="24" viewBox="0 0 24 24"><path d="M12,2A10,10 0 0,1 22,12A10,10 0 0,1 12,22A10,10 0 0,1 2,12A10,10 0 0,1 12,2M13,17A2,2 0 0,0 15,15V9A2,2 0 0,0 13,7H11A2,2 0 0,0 9,9V11A2,2 0 0,0 11,13H13V15H9V17H13M13,11H11V9H13V11Z" /></svg>
